X:1
T:Title
%%score 1 2 3
L:1/8
M:3/2
K:C
V:1 treble-8 nm="Part_1"
V:2 treble-8 nm="Part_2"
V:3 treble-8 nm="Part_3"
V:1
 d4 d4 e4 | e4 f4 f2 e2 | c8 d4 | f4 e4 d4 | e4 z4 e4 | f8 d4 | f4 e2 g4 f2 | d2 e2 d2 d2 c2 B2 | %8
 d4 z4 B4 | A4 d2 c2 A4 | A2 B2 c4 B4 | A8 e4 | f4 f2 d2 e2 c2 | B4 z4 e4 | g4 f4 d4 | %15
 f4 e2 g4 f2 | d2 e2 d2 d2 c2 B2 |[M:4/2] d16 |] %18
V:2
 D4 F4 E4 | G4 A4 A4 | E4 E4 D4 | A4 G4 F4 | E4 F2 G2 E4 | D4 D4 G4 | A4 G4 D4 | G4 F4 E4 | %8
 D4 D4 D4 | F4 F4 F4 | F4 C4 D4 | F4 F4 G4 | A4 G2 E2 F4 | G2 F2 E4 C4 | E4 D4 G4 | A4 G2 F2 D4 | %16
 G4 F4 E4 |[M:4/2] D16 |] %18
V:3
 A4 A4 G4 | E8 D4 | G8 A4 | c4 B4 A4 | B4 z4 c4 | d8 B4 | c4 B4 A4 | B4 A4 G4 | A4 z4 d4 | %9
 c4 A4 d4 | d4 e4 d4 | c8 B4 | A4 B4 A4 | G4 z8 | B2 c2 d4 B4 | c4 B4 A4 | B4 A4 G4 |[M:4/2] A16 |] %18

